build/assets/images/proyectos/logos/logo-primeriti-ltc.svg

<svg width="200" height="200" viewBox="0 0 200 200" fill="none" xmlns="http://www.w3.org/2000/svg">
<rect width="200" height="200" fill="white"/>
<g clip-path="url(#clip0)">
<path d="M20 58.0409C20 64.4293 20 70.7176 20 76.9377C21.4595 76.9377 22.7736 76.9377 24.315 76.9377C24.315 75.1235 24.315 73.5003 24.315 71.7043C26.8067 71.7043 29.0665 71.7543 31.3263 71.6952C35.2866 71.5906 38.1102 68.8079 38.1966 64.9976C38.2784 61.2965 35.4139 58.2046 31.5263 58.0682C27.7524 57.9363 23.9694 58.0409 20 58.0409ZM135.168 72.6046C136.032 71.9862 136.75 71.5633 137.359 71.0177C139.001 69.5445 139.328 67.6121 138.801 65.6069C138.269 63.5699 136.873 61.9194 134.777 61.7466C131.426 61.4693 128.038 61.6739 124.587 61.6739C124.587 66.8619 124.587 71.8953 124.587 77.0105C125.738 77.0105 126.756 77.0105 127.993 77.0105C127.993 72.1635 127.993 67.4257 127.993 62.7333C132.126 62.0376 134.554 63.0334 135.204 65.7933C135.45 66.83 135.477 68.2441 134.954 69.0626C134.136 70.3357 132.753 71.2496 131.498 72.4181C133.663 73.9459 134.377 78.179 138.946 76.8786C138.223 76.0693 137.632 75.4145 137.046 74.7552C136.45 74.0778 135.863 73.4003 135.168 72.6046ZM50.8096 72.0226C54.3198 77.2106 55.07 77.6925 58.1892 76.7377C56.9979 75.3873 55.8112 74.0459 54.5426 72.6091C55.2565 72.1271 55.8476 71.8089 56.3477 71.3815C58.1301 69.8719 58.8485 67.9304 58.2119 65.6797C57.6163 63.5745 56.2159 61.883 53.997 61.7103C50.7141 61.4556 47.3904 61.6466 43.9802 61.6466C43.9802 66.8391 43.9802 71.8771 43.9802 77.0105C45.1215 77.0105 46.14 77.0105 47.404 77.0105C47.404 72.159 47.404 67.4211 47.404 62.7288C51.5326 62.0649 53.9015 63.1289 54.6836 65.8525C55.4247 68.4487 54.1107 70.5448 50.8096 72.0226ZM171.211 62.3968C171.215 62.174 171.225 61.9558 171.229 61.733C165.75 61.733 160.276 61.733 154.797 61.733C154.788 61.9376 154.778 62.1422 154.774 62.3514C156.861 62.3514 158.948 62.3514 161.244 62.3514C161.244 67.4939 161.244 72.2363 161.244 77.0059C162.495 77.0059 163.522 77.0059 164.786 77.0059C164.786 72.1499 164.786 67.412 164.786 62.3968C167.082 62.3968 169.147 62.3968 171.211 62.3968ZM68.1332 61.6693C66.9692 61.6693 65.9462 61.6693 64.8231 61.6693C64.8231 66.8437 64.8231 71.8816 64.8231 77.0105C65.9735 77.0105 66.992 77.0105 68.1332 77.0105C68.1332 71.9089 68.1332 66.9255 68.1332 61.6693ZM145.885 77.0059C147.131 77.0059 148.154 77.0059 149.268 77.0059C149.268 71.8498 149.268 66.8209 149.268 61.7148C148.081 61.7148 147.012 61.7148 145.885 61.7148C145.885 66.8619 145.885 71.8271 145.885 77.0059ZM180 77.0469C180 71.7952 180 66.7618 180 61.6966C178.836 61.6966 177.822 61.6966 176.772 61.6966C176.772 66.8982 176.772 71.9316 176.772 77.0469C177.872 77.0469 178.836 77.0469 180 77.0469Z" fill="white"/>
<path d="M135.168 72.6045C135.863 73.4002 136.45 74.0777 137.046 74.7507C137.632 75.41 138.223 76.0647 138.946 76.8741C134.377 78.1699 133.663 73.9368 131.498 72.4136C132.753 71.245 134.131 70.3311 134.954 69.058C135.481 68.2395 135.45 66.8255 135.204 65.7888C134.554 63.0288 132.121 62.0331 127.993 62.7287C127.993 67.4211 127.993 72.1589 127.993 77.0059C126.756 77.0059 125.738 77.0059 124.587 77.0059C124.587 71.8907 124.587 66.8573 124.587 61.6693C128.038 61.6693 131.426 61.4647 134.777 61.7421C136.873 61.9148 138.269 63.5608 138.801 65.6024C139.324 67.6075 139.001 69.5399 137.359 71.0131C136.75 71.5633 136.032 71.9862 135.168 72.6045Z" fill="black"/>
<path d="M50.8096 72.0226C54.1107 70.5449 55.4293 68.4533 54.6836 65.8525C53.9015 63.1289 51.5326 62.0649 47.404 62.7288C47.404 67.4212 47.404 72.159 47.404 77.0105C46.14 77.0105 45.1215 77.0105 43.9802 77.0105C43.9802 71.8771 43.9802 66.8346 43.9802 61.6466C47.3904 61.6466 50.7141 61.4557 53.997 61.7148C56.2159 61.8876 57.6163 63.5745 58.2119 65.6843C58.8485 67.935 58.1301 69.8765 56.3477 71.386C55.8476 71.8089 55.2565 72.1317 54.5426 72.6137C55.8112 74.0505 56.9979 75.3918 58.1892 76.7423C55.0655 77.688 54.3153 77.206 50.8096 72.0226Z" fill="black"/>
<path d="M171.211 62.3968C169.147 62.3968 167.082 62.3968 164.782 62.3968C164.782 67.4166 164.782 72.1544 164.782 77.0059C163.518 77.0059 162.49 77.0059 161.24 77.0059C161.24 72.2317 161.24 67.4893 161.24 62.3513C158.944 62.3513 156.857 62.3513 154.77 62.3513C154.779 62.1467 154.788 61.9421 154.792 61.733C160.271 61.733 165.746 61.733 171.225 61.733C171.225 61.9558 171.216 62.1786 171.211 62.3968Z" fill="black"/>
<path d="M68.1332 61.6693C68.1332 66.93 68.1332 71.9089 68.1332 77.0105C66.992 77.0105 65.9735 77.0105 64.8231 77.0105C64.8231 71.8861 64.8231 66.8437 64.8231 61.6693C65.9462 61.6693 66.9647 61.6693 68.1332 61.6693Z" fill="black"/>
<path d="M145.885 77.0059C145.885 71.827 145.885 66.8618 145.885 61.7148C147.012 61.7148 148.081 61.7148 149.268 61.7148C149.268 66.8209 149.268 71.8498 149.268 77.0059C148.149 77.0059 147.131 77.0059 145.885 77.0059Z" fill="black"/>
<path d="M180 77.0468C178.836 77.0468 177.872 77.0468 176.772 77.0468C176.772 71.9316 176.772 66.8937 176.772 61.6966C177.822 61.6966 178.836 61.6966 180 61.6966C180 66.7618 180 71.7952 180 77.0468Z" fill="black"/>
<path fill-rule="evenodd" clip-rule="evenodd" d="M23.6415 58.0209C22.4421 58.0309 21.23 58.0409 20 58.0409C20 64.4247 20 70.7131 19.9955 76.9377H24.3105V71.7043C25.1119 71.7043 25.8889 71.7094 26.6492 71.7145C28.2572 71.7252 29.7905 71.7353 31.3217 71.6952C35.2866 71.5906 38.1102 68.8079 38.1921 64.9976C38.2739 61.2965 35.4139 58.2046 31.5264 58.0682C28.9218 57.9772 26.313 57.9988 23.6415 58.0209ZM25.3249 70.6322C24.9891 70.6223 24.6506 70.613 24.3105 70.6085C24.3105 70.6085 24.3104 70.6085 24.3104 70.6085V59.355C24.7504 59.3411 25.1911 59.3145 25.6298 59.288C26.2729 59.2493 26.9118 59.2108 27.5387 59.2127C28.2341 59.2148 28.9146 59.2666 29.5692 59.423C30.6848 59.6896 31.7252 60.26 32.6358 61.4056C32.6401 61.411 32.6444 61.4164 32.6486 61.4219C33.4308 62.4121 33.8297 63.5697 33.8447 64.7508C33.8583 65.7702 33.5858 66.8063 33.0268 67.7667C31.6988 70.0476 29.8033 70.5715 27.6695 70.6533C26.9583 70.6806 26.2206 70.6587 25.4686 70.6364C25.4686 70.6364 25.4686 70.6364 25.4686 70.6364C25.4207 70.635 25.3728 70.6336 25.3249 70.6322Z" fill="black"/>
<path d="M75.7584 63.6518V64.3975H77.7181L74.0806 77.0832H76.7405C76.7405 77.0832 78.8411 69.1535 82.756 65.1886C82.756 65.1886 85.4159 62.997 86.1161 65.375C86.8164 67.753 82.7105 77.4106 82.7105 77.4106H85.4614C85.4614 77.4106 87.512 69.8537 90.3584 66.7755C93.2047 63.6972 94.6506 63.9291 95.2099 65.2841C95.7692 66.6391 92.3181 74.2414 92.2226 75.5919C92.1271 76.9468 92.5954 78.4837 94.5097 78.4837C96.4239 78.4837 99.0338 75.1235 99.0338 75.1235V74.5188C99.0338 74.5188 95.9556 78.1563 94.7416 77.5516C93.5275 76.9468 98.1926 67.9895 97.8653 65.7024C97.5379 63.4153 95.951 62.6696 93.714 63.0425C90.9131 63.5108 88.3032 67.894 88.3032 67.894C88.3032 67.894 89.3717 62.9425 86.5299 62.7651C82.1467 62.4832 79.4868 67.7576 79.4868 67.7576L80.7463 63.138L75.7584 63.6518Z" fill="black"/>
<path d="M119.422 65.8706C119.967 63.1743 118.799 60.2916 114.061 60.2916C108.773 60.2916 103.558 65.6797 102.976 71.0859C102.253 77.8244 105.513 80.0705 110.078 80.0705C115.584 80.0705 118.194 74.7098 118.194 74.7098H117.471C117.471 74.7098 116.021 77.3197 113.27 78.5519C110.514 79.7841 107.959 79.975 106.75 77.7562C104.576 73.7731 106.386 69.931 106.386 69.931C106.386 69.931 118.19 71.9589 119.422 65.8706ZM111.16 61.8148C112.82 60.7918 115.434 61.0919 116.089 62.465C117.021 64.4338 116.453 67.2483 112.974 68.8398C111.26 69.6264 106.959 68.6943 106.959 68.6943C106.959 68.6943 108.696 63.338 111.16 61.8148Z" fill="black"/>
</g>
<g clip-path="url(#clip1)">
<path d="M80.1739 132.247V97.8624H70V140.107H76.8323H80.1739H88.097V132.247H80.1739Z" fill="black"/>
<path d="M109.174 100.017V97.9262H102.15V97.8624H91.9761V97.9209H85.6865V105.78H91.9761V140.101H102.15V105.78H106.306C106.481 104.461 106.769 103.364 107.194 102.598C107.748 101.603 108.434 100.752 109.174 100.017Z" fill="black"/>
<path d="M124.046 130.555L120.322 132.343C120.322 132.343 118.693 123.26 117.682 117.902C116.671 112.543 115.666 105.477 115.666 105.477H119.316L120.162 96L115.66 96.2341C115.66 96.2341 112.01 97.2132 109.174 100.017V105.785H106.306C105.651 110.723 106.614 118.881 108.205 125.505C110.068 133.269 113.644 139.33 114.649 140.415C115.66 141.501 121.796 141.655 124.046 141.346C126.297 141.038 129.171 139.096 129.171 139.096L124.046 130.555Z" fill="black"/>
</g>
<defs>
<clipPath id="clip0">
<rect width="160" height="22.0751" fill="white" transform="translate(20 58)"/>
</clipPath>
<clipPath id="clip1">
<rect width="59.1705" height="45.49" fill="white" transform="translate(70 96)"/>
</clipPath>
</defs>
</svg>

<svg width="200" height="200" fill="none" xmlns="http://www.w3.org/2000/svg"><path fill="#fff" d="M0 0h200v200H0z"/><g clip-path="url(#clip0)"><path d="M20 58.04v18.898h4.315v-5.234c2.492 0 4.752.05 7.011-.009 3.96-.104 6.784-2.887 6.87-6.697.082-3.702-2.782-6.793-6.67-6.93-3.774-.132-7.557-.027-11.526-.027zm115.168 14.565c.864-.619 1.582-1.042 2.191-1.587 1.642-1.474 1.969-3.406 1.442-5.411-.532-2.037-1.928-3.688-4.024-3.86-3.351-.278-6.739-.073-10.19-.073V77.01h3.406V62.733c4.133-.695 6.561.3 7.211 3.06.246 1.037.273 2.451-.25 3.27-.818 1.273-2.201 2.187-3.456 3.355 2.165 1.528 2.879 5.761 7.448 4.46-.723-.809-1.314-1.463-1.9-2.123-.596-.677-1.183-1.355-1.878-2.15zm-84.358-.582c3.51 5.188 4.26 5.67 7.38 4.715l-3.647-4.129c.714-.482 1.305-.8 1.805-1.227 1.782-1.51 2.5-3.452 1.864-5.702-.596-2.106-1.996-3.797-4.215-3.97-3.283-.254-6.607-.063-10.017-.063V77.01h3.424V62.73c4.129-.664 6.497.4 7.28 3.124.74 2.596-.573 4.692-3.874 6.17zm120.401-9.626c.004-.223.014-.441.018-.664h-16.432c-.009.205-.019.41-.023.618h6.47v14.655h3.542v-14.61h6.425zm-103.078-.728h-3.31V77.01h3.31V61.67zm77.752 15.337h3.383V61.715h-3.383v15.29zm34.115.04v-15.35h-3.228v15.35H180z" fill="#fff"/><path d="M135.168 72.605c.695.795 1.282 1.473 1.878 2.146.586.659 1.177 1.314 1.9 2.123-4.569 1.296-5.283-2.937-7.448-4.46 1.255-1.169 2.633-2.083 3.456-3.356.527-.819.496-2.233.25-3.27-.65-2.76-3.083-3.755-7.211-3.06v14.278h-3.406V61.669c3.451 0 6.839-.204 10.19.073 2.096.173 3.492 1.819 4.024 3.86.523 2.005.2 3.938-1.442 5.411-.609.55-1.327.973-2.191 1.591zm-84.358-.582c3.3-1.478 4.62-3.57 3.874-6.17-.782-2.724-3.151-3.788-7.28-3.124V77.01H43.98V61.647c3.41 0 6.734-.191 10.017.068 2.219.173 3.62 1.86 4.215 3.97.636 2.25-.082 4.191-1.864 5.701-.5.423-1.091.746-1.805 1.228 1.268 1.436 2.455 2.778 3.646 4.128-3.123.946-3.874.464-7.38-4.72zm120.401-9.626h-6.429v14.609h-3.542V62.35h-6.47c.009-.204.018-.409.022-.618h16.433c0 .223-.009.446-.014.664zM68.133 61.67v15.34h-3.31V61.67h3.31zm77.752 15.336V61.715h3.383v15.29h-3.383zm34.115.041h-3.228v-15.35H180v15.35z" fill="#000"/><path fill-rule="evenodd" clip-rule="evenodd" d="M23.642 58.02c-1.2.01-2.412.02-3.642.02 0 6.385 0 12.673-.005 18.898h4.316v-5.234c.8 0 1.578.005 2.338.01 1.608.011 3.142.021 4.673-.019 3.965-.104 6.788-2.887 6.87-6.697.082-3.702-2.778-6.793-6.666-6.93-2.604-.09-5.213-.07-7.884-.047zm1.683 12.612a62.41 62.41 0 00-1.014-.023V59.355c.44-.014.88-.04 1.319-.067a30.165 30.165 0 011.909-.075c.695.002 1.376.054 2.03.21 1.116.267 2.156.837 3.067 1.983l.013.016a5.449 5.449 0 011.196 3.329c.013 1.02-.26 2.055-.818 3.016-1.328 2.28-3.224 2.805-5.358 2.886-.71.028-1.448.006-2.2-.017l-.144-.004z" fill="#000"/><path d="M75.758 63.652v.745h1.96l-3.637 12.686h2.66s2.1-7.93 6.015-11.894c0 0 2.66-2.192 3.36.186.7 2.378-3.406 12.036-3.406 12.036h2.751s2.051-7.557 4.897-10.636c2.847-3.078 4.293-2.846 4.852-1.49.56 1.354-2.892 8.956-2.987 10.307-.096 1.355.372 2.892 2.287 2.892 1.914 0 4.524-3.36 4.524-3.36v-.605s-3.078 3.637-4.292 3.033c-1.215-.605 3.45-9.563 3.123-11.85-.327-2.287-1.914-3.032-4.151-2.66-2.8.469-5.41 4.852-5.41 4.852s1.068-4.952-1.774-5.129c-4.383-.282-7.043 4.993-7.043 4.993l1.26-4.62-4.989.514zm43.664 2.218c.545-2.696-.623-5.578-5.361-5.578-5.288 0-10.503 5.388-11.085 10.794-.723 6.738 2.537 8.984 7.102 8.984 5.506 0 8.116-5.36 8.116-5.36h-.723s-1.45 2.61-4.201 3.842c-2.756 1.232-5.311 1.423-6.52-.796-2.174-3.983-.364-7.825-.364-7.825s11.804 2.028 13.036-4.06zm-8.262-4.055c1.66-1.023 4.274-.723 4.929.65.932 1.969.364 4.783-3.115 6.375-1.714.786-6.015-.146-6.015-.146s1.737-5.356 4.201-6.88z" fill="#000"/></g><g clip-path="url(#clip1)" fill="#000"><path d="M80.174 132.247V97.862H70v42.245h18.097v-7.86h-7.923zm29-32.23v-2.09h-7.024v-.065H91.976v.059h-6.29v7.859h6.29v34.321h10.174V105.78h4.156c.175-1.319.463-2.416.888-3.182a11.586 11.586 0 011.98-2.581z"/><path d="M124.046 130.555l-3.724 1.788s-1.629-9.083-2.64-14.441c-1.011-5.359-2.016-12.425-2.016-12.425h3.65l.846-9.477-4.502.234s-3.65.98-6.486 3.783v5.768h-2.868c-.655 4.938.308 13.096 1.899 19.72 1.863 7.764 5.439 13.825 6.444 14.91 1.011 1.086 7.147 1.24 9.397.931 2.251-.308 5.125-2.25 5.125-2.25l-5.125-8.541z"/></g><defs><clipPath id="clip0"><path fill="#fff" transform="translate(20 58)" d="M0 0h160v22.075H0z"/></clipPath><clipPath id="clip1"><path fill="#fff" transform="translate(70 96)" d="M0 0h59.17v45.49H0z"/></clipPath></defs></svg>
